X: 104
T: Song of the Elk Society
C: Teton Sioux band 1911-1914
N: Derived from sioux104.krn
O: South Dakota, U.S.A.
N: Teton Sioux Music by Frances Densmore, 1918
Z: transcribed to **kern format by Craig Sapp
L: 1/8
M: 3/4
Q: 1/4=58
K: F clef=bass
%%linebreak <none>
G G G< F F/ C3/ [I:setbarnb 2]| 
F F F< _DC2 ||  
[M:2/4]_D< CC2 ||  
[M:3/4]_D< CC2C2 | 
F F F< _DF2 | 
_D D D< C C/ A,3/ | 
C C C< A, (3A, F, F, ||  
[M:2/4]F,2E,2 ||  
[M:3/4]F, F, F,< E, E,/ C,3/ ||  
[M:2/4]F, _D,C,2 | 
C,3C, | 
C,3C/ C/ ||  
[M:3/4]F F F< C (D/ C/) (D/ C/) ||  
[M:2/4](D/ C/) D C C/ A,/ ||  
[M:3/4]C C C< A, (A,/ F,/) F, ||  
[M:2/4]F,2E,2 ||  
[M:3/4]F, F, F,< E, E,/ C,3/ ||  
[M:2/4]F, _D,C,2 | 
C,4 |]  



